flaticon/education/book-5.svg

<svg xmlns="http://www.w3.org/2000/svg" width="32" height="32" viewBox="0 0 24 24">
    <path d="M 4.921875 10.199219 C 5.078125 10.320312 5.28125 10.398438 5.480469 10.398438 C 5.558594 10.398438 5.640625 10.398438 5.679688 10.398438 L 16.28125 8.160156 C 16.679688 8.078125 17 7.71875 17 7.28125 L 17 3.519531 C 17 3.238281 16.878906 3 16.679688 2.839844 C 16.480469 2.640625 16.199219 2.601562 15.921875 2.640625 L 5.320312 4.839844 C 4.921875 4.921875 4.601562 5.28125 4.601562 5.71875 L 4.601562 9.480469 C 4.601562 9.761719 4.71875 10.039062 4.921875 10.199219 Z M 5.398438 5.71875 C 5.398438 5.679688 5.441406 5.640625 5.480469 5.640625 L 16.078125 3.441406 C 16.121094 3.441406 16.160156 3.441406 16.160156 3.441406 C 16.160156 3.441406 16.199219 3.480469 16.199219 3.519531 L 16.199219 7.320312 C 16.199219 7.359375 16.160156 7.398438 16.121094 7.398438 L 5.519531 9.601562 C 5.480469 9.601562 5.441406 9.558594 5.441406 9.558594 C 5.441406 9.558594 5.398438 9.519531 5.398438 9.480469 Z M 5.398438 5.71875"/>
    <path d="M 18.601562 2.398438 L 18.601562 1.199219 C 18.601562 0.640625 18.199219 0 17.558594 0 L 3.921875 2.800781 C 3.398438 2.921875 3 3.398438 3 3.921875 L 3 22 C 3 23.121094 3.878906 24 5 24 L 21 24 L 21 2.398438 Z M 4.078125 3.601562 L 17.601562 0.800781 C 17.679688 0.839844 17.800781 1 17.761719 1.199219 L 17.761719 17.441406 C 17.761719 17.558594 17.679688 17.679688 17.558594 17.679688 L 4.960938 19.601562 C 4.738281 19.601562 4.53125 19.640625 4.335938 19.710938 C 4.140625 19.777344 3.960938 19.871094 3.800781 19.992188 L 3.800781 3.921875 C 3.800781 3.761719 3.921875 3.640625 4.078125 3.601562 Z M 20.199219 23.199219 L 5 23.199219 C 4.320312 23.199219 3.800781 22.679688 3.800781 22 L 3.800781 21.601562 C 3.800781 20.921875 4.320312 20.398438 5 20.398438 L 20.199219 20.398438 Z M 10.320312 19.601562 L 17.71875 18.480469 C 18.238281 18.398438 18.601562 17.960938 18.601562 17.441406 L 18.601562 3.199219 L 20.199219 3.199219 L 20.199219 19.601562 Z M 10.320312 19.601562"/>
</svg>

<svg xmlns="http://www.w3.org/2000/svg" width="32" height="32" viewBox="0 0 24 24">
    <path d="M4.922 10.2c.156.12.36.198.558.198h.2L16.28 8.16A.905.905 0 0 0 17 7.281V3.52a.855.855 0 0 0-.32-.68c-.2-.2-.48-.238-.758-.2L5.32 4.84a.905.905 0 0 0-.718.879V9.48c0 .282.117.56.32.72zm.476-4.481c0-.04.043-.078.082-.078l10.598-2.2h.082s.04.04.04.079v3.8c0 .04-.04.078-.079.078L5.52 9.602c-.04 0-.079-.043-.079-.043s-.043-.04-.043-.079zm0 0"/>
    <path d="M18.602 2.398V1.2C18.602.641 18.199 0 17.559 0L3.922 2.8C3.398 2.923 3 3.399 3 3.923V22c0 1.121.879 2 2 2h16V2.398zM4.078 3.602L17.602.8c.078.039.199.199.16.398v16.242c0 .118-.082.239-.203.239L4.96 19.602c-.223 0-.43.039-.625.109-.195.066-.375.16-.535.281V3.922c0-.16.12-.281.277-.32zM20.2 23.199H5c-.68 0-1.2-.52-1.2-1.199v-.398c0-.68.52-1.204 1.2-1.204h15.2zm-9.879-3.597l7.399-1.122c.52-.082.883-.52.883-1.039V3.2h1.597v16.403zm0 0"/>
</svg>
